X:1
T:Theme from Dallas
Z:Nigel Gatherer <gatherer:argonet.co.uk> tradtunes 2002-5-3
N:First notes the same as The Cotillion
M:2/4
L:1/8
K:G
G2 d2 | BA/B/ GD | Ge dB/c/ | d3 D |
Ge dB/c/ | dA/B/ GD | GB/c/ A>G | G4 |]
